svg/Filled/accessibility_filled.svg

<svg viewBox="0 0 24 24" xmlns="http://www.w3.org/2000/svg" width="24" height="24"><path d="M12 7a3 3 0 1 1 0-6 3 3 0 0 1 0 6"/><path d="M20.62 6.76h-.05l-.14.05c-.91.23-5.34 1.34-8.45 1.34-2.9 0-6.92-.95-8.2-1.28l-.4-.11c-.93-.22-1.56.62-1.56 1.4 0 .75.76 1.12 1.54 1.38v.01l4.66 1.3c.48.16.6.33.67.47.2.47.04 1.38-.02 1.7L8.4 15l-1.58 6.6-.01.07-.01.05c-.12.7.46 1.4 1.56 1.4.96 0 1.39-.6 1.57-1.4s1.37-6.88 2.06-6.88 2.1 6.88 2.1 6.88c.18.8.6 1.4 1.56 1.4 1.1 0 1.69-.7 1.57-1.4l-.04-.18-1.6-6.54-.28-1.97c-.2-1.14-.04-1.52.02-1.6v-.02c.05-.08.3-.28.86-.47l4.37-1.36.08-.02c.78-.26 1.56-.63 1.56-1.4s-.63-1.61-1.56-1.4"/></svg>

<svg viewBox="0 0 24 24" xmlns="http://www.w3.org/2000/svg" width="24" height="24"><path d="M12 7a3 3 0 1 1 0-6 3 3 0 0 1 0 6"/><path d="M20.62 6.76L20.43 6.81C19.52 7.04 15.09 8.15 11.98 8.15C9.08 8.15 5.06 7.2 3.78 6.87L3.38 6.76C2.45 6.54 1.82 7.38 1.82 8.16C1.82 8.91 2.58 9.28 3.36 9.54L8.02 10.85C8.5 11.01 8.62 11.18 8.69 11.32C8.89 11.79 8.73 12.7 8.67 13.02L8.4 15L6.8 21.72C6.68 22.42 7.26 23.12 8.36 23.12C9.32 23.12 9.75 22.52 9.93 21.72C10.11 20.92 11.3 14.84 11.99 14.84C12.68 14.84 14.09 21.72 14.09 21.72C14.27 22.52 14.69 23.12 15.65 23.12C16.75 23.12 17.34 22.42 17.22 21.72L15.58 15L15.3 13.03C15.1 11.89 15.26 11.51 15.32 11.43L15.32 11.41C15.37 11.33 15.62 11.13 16.18 10.94L20.63 9.56C21.41 9.3 22.19 8.93 22.19 8.16C22.19 7.39 21.56 6.55 20.63 6.76"/></svg>
